X:1
T:Title
%%score { ( 1 3 5 ) | ( 2 4 6 ) }
L:1/8
M:4/4
K:E
V:1 treble nm="Grand Piano"
V:3 treble 
V:5 treble 
V:2 bass 
V:4 bass 
V:6 bass 
V:1
 z4 z2[Q:1/4=100] B,2 | G2 GF z FGA | [GB]2 [Ac]2 [GB]2 [EG]2 | [DF]3 [DF] [CE]2 [DF]2 | G6 B,2 | %5
 G2 GF z FGA | [GB]2 [Ac]2 [GB]2 G2 | F2 d2 e2 [E^A]2 |[M:3/4] [DB]6 |[M:1/4] B>^A |[M:4/4] A6 z2 | %11
 B6 z2 | A6 z2 | G6 z2 | c6 z2 | A6 z2 | [B,E]2 [EG]2 [DA]2 D2 |[M:3/4] E6 |] %18
V:2
 z4 z2 [E,G,]2 | [E,B,E]2 [E,E]-[E,A,E] E,-[E,A,]EF | [E,E]2 [E,E]2 [E,E]2 [E,B,]2 | %3
 [B,,B,]3 [B,,B,] [C,G,]2 [B,,B,]2 | [E,B,E]6 [E,G,]2 | [E,B,E]2 [E,E]-[E,A,E] E,-[E,A,]EF | %6
 [E,E]2 [E,E]2 [E,E]2 [E,B,E]2 | [F,B,D]2 [F,B,F]2 [F,^A,F]2 [F,,F,]2 |[M:3/4] [B,,F,]6 | %9
[M:1/4][K:treble] G>=G |[M:4/4] F6[K:bass][K:treble] z2 | G6[K:bass][K:treble] z2 | %12
 F6[K:bass][K:treble] z2 | E6[K:bass][K:treble] z2 | ^E6[K:bass][K:treble] z2 | F6[K:bass] z2 | %16
 [B,,G,]2 [B,,B,]2 [B,,B,]2 [B,,A,B,]2 |[M:3/4] [E,G,B,]6 |] %18
V:3
 x8 | z4 E2 z2 | x8 | x8 | x8 | z4 E2 z2 | x8 | x8 |[M:3/4] x6 |[M:1/4] x2 | %10
[M:4/4] z B, B,>B, z z/ B/ d>c | z B, B,>B, z z/ B/ B>^A | z B, B,>B, z z/ G/ A>B | %13
 z B, B,>B, B,2 B>B | z G, G,>G, z z/ B/ A>G | z C C>C C>[CF] [CF]>[^B,F] | x8 |[M:3/4] x6 |] %18
V:4
 x8 | z2 .B,2 .G,2 [E,B,]2 | x8 | x8 | x8 | z2 .B,2 .G,2 [E,B,]2 | x8 | x8 |[M:3/4] x6 | %9
[M:1/4][K:treble] x2 |[M:4/4] z[K:bass] B,, B,,>B,, z z/[K:treble] G/ B>A | %11
 z[K:bass] E, E,>E, z z/[K:treble] G/ G>=G | z[K:bass] B,, B,,>B,, z z/[K:treble] ^E/ F>D | %13
 z[K:bass] E, E,>E, E,2[K:treble] G>F | z[K:bass] C, C,>C, z z/[K:treble] G/ F>^E | %15
 z[K:bass] F, F,>F, F,>[A,,A,] [A,,A,]>[A,,A,] | x8 |[M:3/4] x6 |] %18
V:5
 x8 | x8 | x8 | x8 | x8 | x8 | x8 | x8 |[M:3/4] x6 |[M:1/4] x2 |[M:4/4] z4 B,2 z2 | z4 B,2 z2 | %12
 z4 B,2 z2 | x8 | z4 G,2 z2 | x8 | x8 |[M:3/4] x6 |] %18
V:6
 x8 | x8 | x8 | x8 | x8 | x8 | x8 | x8 |[M:3/4] x6 |[M:1/4][K:treble] x2 | %10
[M:4/4] z4[K:bass] B,,2[K:treble] z2 | z4[K:bass] E,2[K:treble] z2 | z4[K:bass] B,,2[K:treble] z2 | %13
 x[K:bass] x5[K:treble] x2 | z4[K:bass] C,2[K:treble] z2 | x[K:bass] x7 | x8 |[M:3/4] x6 |] %18

